X:11328
T:Mrs McLeod's
C:Niel Gow
R:reel
H:The original title is "Mrs McLeod of Raasay".
H:See also other versions, #491, #663
N:In Scotland the parts are played in the opposite order, and the tune is in A.
D:Music at Matt Molloy's.
Z:id:hn-reel-55
M:C|
K:G
G2BG DGBG|B2BA BcBA|G2BG DGBG|A2AG AcBA|
G2BG DGBG|B2BA B2d2|~e3f edef|gedB AcBA:|
|:G2gf edeg|B2BA BcBA|G2gf edeg|a2ag a2ba|
g2bg efge|dBBA B2d2|~e3f edef|gedB AcBA:|
